X:14836
T:Sandansko
O:Macedonia/Bulgaria
M:22/8
K:Em
E2B2A2B3A2AGBAA2GGFFE|
EFGDGFA2GGFFEFEE2B,EFGA|
E2B2A2B3A2AGBAA2GGFFE|
EFGDGFA2GGFFEFEEEB,EEEz|
|:EFGDGFA2GGFFEGAA2BAGGF|
EFGDGFA2GGFFEFEE2B,Ez3:|
K:D
|:FGA2AGG2FFGABcBA2GFGGF|
FGA2AGG2FFGABAGGzGF2z2:||
